icons/folder_type_windows_opened.svg

<svg xmlns="http://www.w3.org/2000/svg" viewBox="0 0 32 32"><path d="M27.9 6h-9.7l-2 4H5v17h25V6Zm.1 18H7V12h21Zm.1-14h-7.8l1-2H28Z" style="fill:#7baddb"/><path d="M25.9 14H.3l3.8 13h25.6l-3.8-13z" style="fill:#7baddb"/><path d="m10 12.974 8.582-1.166v8.253L10 20.109Zm8.577 8.037.008 8.261-8.579-1.172v-7.14Zm1.041-9.355L31 10v9.956l-11.379.089ZM31 21.089V31l-11.382-1.6-.018-8.33Z" style="fill:#0078d6"/></svg>

<svg xmlns="http://www.w3.org/2000/svg" viewBox="0 0 32 32"><title>folder_type_windows_opened</title><path d="M27.9,6H18.2l-2,4H5V27H30V6ZM28,24H7V12H28Zm.1-14H20.3l1-2H28Z" style="fill:#7baddb"/><polygon points="25.9 14 0.3 14 4.1 27 29.7 27 25.9 14" style="fill:#7baddb"/><path d="M10,12.974l8.582-1.166v8.253L10,20.109Zm8.577,8.037.008,8.261L10.006,28.1V20.96Zm1.041-9.355L31,10v9.956l-11.379.089ZM31,21.089V31L19.618,29.4,19.6,21.07Z" style="fill:#0078d6"/></svg>
